X:4610
T:New Ships Are Sailing
O:england
R:reel
D:Altan: Harvest Storm
M:C|
K:G
~G3A BGED|G2 (3Bcd edef|gdBG AGED|AGFE D3E|
G2~G2 AGED|G2 (3Bcd edef|gdBG AGED|GBAF G2dB:|
|:G2 (3Bcd edBd|g2dg edBd|cBAc BAGB|AGFE DcBA|
G2~G2 AGED|G2 (3Bcd edef|gdBG AGED|GBAF G2dB:|


